X:1
T:St. Frideswide, 87.87 D
T:St. Frideswide, 87.87 D
T:Charles Harford Lloyd, 1889
T:Public Domain Courtesy of the Cyber Hymnal™
C:Charles Harford Lloyd, 1889
Z:Public Domain
Z:Courtesy of the Cyber Hymnal™
%%score ( 1 2 ) 3
L:1/8
Q:1/4=113
M:4/4
K:D
V:1 treble 
V:2 treble 
V:3 bass 
V:1
 [DF]2 [CE]2 | D3 [DE] [DF]2 [DG]2 | [EA]2 [DF]2 [DB]2 [DB]2 | [DA]2 [DF]2 [DG]2 [DA]2 | %4
 [DF]4 [FA]2 [^E^G]2 | F3 [F^G] [FA]2 [FB]2 | [^Ec]2 [FA]2 [Fd]2 [Fd]2 | [Fc]2 [FA]2 [FB]2 [^GB]2 | %8
 A4 [EB]2 [Ec]2 | [Dd]3 [Dd] [Ec]2 [Ed]2 | [DB]2 [CB]2 [DA]2 [DF]2 | [B,E]2 D2 D2 [CE]2 | %12
 [DF]4 [EA]2 [FA]2 | [Dd]3 [Fd] [Ec]2 [Ed]2 | [DB]2 [CB]2 [DA]2 [=CF]2 | [B,E]2 D2 [A,D]2 [A,C]2 | %16
 [A,D]4 |] %17
V:2
 x4 | D3 x5 | x8 | x8 | x8 | F3 x5 | x8 | x8 | A4 x4 | x8 | x8 | x2 D2 D2 x2 | x8 | x8 | x8 | %15
 x2 D2 x4 | x4 |] %17
V:3
 [D,A,]2 [D,G,]2 | [D,F,]3 [D,G,] [D,A,]2 [B,,B,]2 | [C,A,]2 [D,A,]2 [G,,G,]2 [B,,G,]2 | %3
 [D,F,]2 [D,A,]2 [B,,B,]2 [C,A,]2 | [D,A,]4 [C,C]2 [C,B,]2 | [F,A,]3 [F,B,] [F,C]2 [D,B,]2 | %6
 [C,^G,]2 [F,A,]2 [B,,B,]2 [D,B,]2 | [F,A,]2 [F,C]2 [D,D]2 [E,D]2 | [A,C]4 [G,B,]2 [G,A,]2 | %9
 [F,,A,]3 [F,,F,] [G,,E,]2 [G,,F,]2 | [F,,D,]2 [E,,D,]2 [F,,C,]2 [F,,A,,]2 | %11
 [G,,G,]2 [B,,F,]2 [A,,F,]2 [A,,A,]2 | [D,A,]4 [C,A,]2 [D,A,]2 | [B,,B,]3 [C,B,] [F,B,]2 [F,^A,]2 | %14
 [G,B,]2 [E,G,]2 [F,A,]2 [D,A,]2 | [G,,G,]2 [B,,F,]2 [A,,F,]2 [A,,E,]2 | [D,F,]4 |] %17

